src/Stylish-Light/16/panel/bluetooth-active.svg

<?xml version="1.0" encoding="UTF-8" standalone="no"?>
<!-- Created with Inkscape (http://www.inkscape.org/) -->

<svg
   width="16"
   height="16"
   viewBox="0 0 16 16"
   version="1.1"
   id="svg5"
   inkscape:version="1.2.1 (9c6d41e410, 2022-07-14)"
   sodipodi:docname="bluetooth-active.svg"
   xmlns:inkscape="http://www.inkscape.org/namespaces/inkscape"
   xmlns:sodipodi="http://sodipodi.sourceforge.net/DTD/sodipodi-0.dtd"
   xmlns="http://www.w3.org/2000/svg"
   xmlns:svg="http://www.w3.org/2000/svg">
  <sodipodi:namedview
     id="namedview7"
     pagecolor="#ffffff"
     bordercolor="#666666"
     borderopacity="1.0"
     inkscape:showpageshadow="2"
     inkscape:pageopacity="0.0"
     inkscape:pagecheckerboard="0"
     inkscape:deskcolor="#d1d1d1"
     inkscape:document-units="px"
     showgrid="false"
     showguides="false"
     inkscape:zoom="48.5"
     inkscape:cx="7"
     inkscape:cy="8"
     inkscape:window-width="1920"
     inkscape:window-height="1008"
     inkscape:window-x="0"
     inkscape:window-y="0"
     inkscape:window-maximized="1"
     inkscape:current-layer="svg5" />
  <defs
     id="defs2">
    <inkscape:path-effect
       effect="bspline"
       id="path-effect1577"
       is_visible="true"
       lpeversion="1"
       weight="33.333333"
       steps="2"
       helper_size="0"
       apply_no_weight="true"
       apply_with_weight="true"
       only_selected="false" />
  </defs>
  <path
     d="m 7.3221992,1.0294691 c -0.19404,0.073773 -0.32231,0.25977 -0.32231,0.46736 v 5.328202 l -3.190955,-2.721542 c -0.21714,-0.1706 -0.53146,-0.13289 -0.70207,0.08425 -0.17061,0.21714 -0.13289,0.53146 0.08425,0.70207 l 3.681255,3.106742 -3.681255,3.1069479 c -0.21714,0.1706 -0.25486,0.4849 -0.08425,0.702 0.17061,0.2172 0.48493,0.2549 0.70207,0.0843 l 3.190955,-2.7216476 v 5.3283376 c 0,0.2076 0.12827,0.3936 0.32231,0.4674 0.19404,0.0738 0.41348,0.02 0.5514,-0.1352 l 3.9999998,-3.499938 c 0.09159,-0.103 0.13658,-0.2393 0.12431,-0.3767 -0.01227,-0.1373 -0.0807,-0.2635 -0.18911,-0.3486 l -3.3178001,-2.6068999 3.3178001,-2.6068 c 0.10841,-0.08518 0.17684,-0.21135 0.18911,-0.34867 0.01227,-0.13733 -0.03272,-0.27362 -0.12431,-0.37667 L 7.8735992,1.1646091 c -0.1562366,-0.1366993 -0.35736,-0.20895001 -0.5514,-0.13518 z M 7.9998892,8.8824714 10.573,11.061471 7.9998892,13.181409 Z m 0,-1.7718003 V 2.8118691 L 10.573,4.9316711 Z"
     id="path346"
     style="fill:#363636;opacity:1"
     sodipodi:nodetypes="csccsccccccssccccccscscccccccccc" />
</svg>

<?xml version="1.0" encoding="UTF-8" standalone="no"?>
<!-- Created with Inkscape (http://www.inkscape.org/) -->

<svg
   width="16"
   height="16"
   viewBox="0 0 16 16"
   version="1.1"
   id="svg5"
   inkscape:version="1.2.1 (9c6d41e410, 2022-07-14)"
   sodipodi:docname="bluetooth-active.svg"
   xmlns:inkscape="http://www.inkscape.org/namespaces/inkscape"
   xmlns:sodipodi="http://sodipodi.sourceforge.net/DTD/sodipodi-0.dtd"
   xmlns="http://www.w3.org/2000/svg"
   xmlns:svg="http://www.w3.org/2000/svg">
  <sodipodi:namedview
     id="namedview7"
     pagecolor="#ffffff"
     bordercolor="#666666"
     borderopacity="1.0"
     inkscape:showpageshadow="2"
     inkscape:pageopacity="0.0"
     inkscape:pagecheckerboard="0"
     inkscape:deskcolor="#d1d1d1"
     inkscape:document-units="px"
     showgrid="false"
     showguides="false"
     inkscape:zoom="50.125"
     inkscape:cx="7.9900249"
     inkscape:cy="8"
     inkscape:window-width="1920"
     inkscape:window-height="1008"
     inkscape:window-x="0"
     inkscape:window-y="0"
     inkscape:window-maximized="1"
     inkscape:current-layer="svg5" />
  <defs
     id="defs2">
     <style
        id="current-color-scheme"
        type="text/css">
        .ColorScheme-Text { color:#363636; }
     </style>
  </defs>
  <path
     d="m 7.322199,1.0294691 c -0.19404,0.073773 -0.32231,0.25977 -0.32231,0.46736 V 6.825031 L 3.8089342,4.1034891 c -0.21714,-0.1706 -0.53146,-0.13289 -0.70207,0.08425 -0.17061,0.21714 -0.13289,0.53146 0.08425,0.70207 L 6.872369,7.996551 3.1911142,11.103499 c -0.21714,0.1706 -0.25486,0.4849 -0.08425,0.702 0.17061,0.2172 0.48493,0.2549 0.70207,0.0843 L 6.999889,9.168151 v 5.328338 c 0,0.2076 0.12827,0.3936 0.32231,0.4674 0.19404,0.0738 0.41348,0.02 0.5514,-0.1352 l 4,-3.499938 c 0.09159,-0.103 0.13658,-0.2393 0.12431,-0.3767 -0.01227,-0.1373 -0.0807,-0.2635 -0.18911,-0.3486 l -3.3178,-2.6069 3.3178,-2.6067999 c 0.10841,-0.08518 0.17684,-0.21135 0.18911,-0.34867 0.01227,-0.13733 -0.03272,-0.27362 -0.12431,-0.37667 l -4,-3.499802 C 7.717363,1.0279098 7.516239,0.95565909 7.322199,1.0294291 Z m 0.67769,7.8530019 2.573111,2.179 -2.573111,2.119938 z m 0,-1.7718 V 2.8118691 L 10.573,4.9316711 Z"
     id="path346"
     style="opacity:1;fill:currentColor;fill-opacity:1"
     class="ColorScheme-Text"
     sodipodi:nodetypes="csccsccccccssccccccscscccccccccc" />
</svg>
